X:264
T: Echoing Horn (The)
N: O'Farrell's Pocket Companion v.3 (Sky ed. p.122)
M: 3/8
L: 1/8
R: jig
Q: 240
K: D
A| ded| dAd| dAd| d2e| f>ga| {a}g>fe| d2d| ece|
a2 A/B/| cAc| e2f/^g/| aec| fdf| A2e| aef| g>fe| fdf|
a2f| bfe| dcf| B2d| dAd| F2d/f/| eAa| Ha2g| f>ed|
eAc| d2 f/g/| a b/a/b/a/| g a/g/a/g/| f g/f/g/f/| e2A| a>gf|gfe|
d2A| dAd| d2 f/d/| eAe| He2 fg| fed| eAc| d2 ||
